X:12020
T:Ladies Pleasure
R:Jig
C:Trad.
O:England, Bledington
Z:Paul Hardy's Session Tunebook 2015 (see www.paulhardy.net). Creative Commons cc by-nc-sa licenced.
P:AAB(CB)2
M:6/8
L:1/8
Q:3/8=100
K:Gmaj
P:A
"G"g2g B2c|d2B G2D|G>GG "C"ABc|"G"B2A "D"A2d|"G"g2g B2c|d2B G2D|G>GG "C"ABc|"G"B2A G3||
P:B
"Am"A>AA "C"cBc|"Am"A>AA "C"cBc|"Am"A>Bc "Bm"def|"Em"gfe "G"d2d|"G"g2g B2c|d2B G2D|G>GG "C"ABc|"G"B2A G3||
P:C
[M:3/8]|:"G"d3|[M:6/8]g3 g3|B3 "C"c3|"G"d3 B3|[M:3/8]G2D|[M:6/8]G>GG "Am"ABc|"D7"B2A "G"G3:|

